src/assets/trash.svg

<?xml version="1.0" encoding="UTF-8"?>
<svg width="16px" height="20px" viewBox="0 0 16 20" version="1.1" xmlns="http://www.w3.org/2000/svg" xmlns:xlink="http://www.w3.org/1999/xlink">
    <!-- Generator: Sketch 46.2 (44496) - http://www.bohemiancoding.com/sketch -->
    <title>trash</title>
    <desc>Created with Sketch.</desc>
    <defs>
        <polygon id="path-1" points="7.17213333 0 0.0278666667 0 0.0278666667 3.29296 7.17213333 3.29296 7.17213333 3.78956126e-15"></polygon>
    </defs>
    <g id="Page-1" stroke="none" stroke-width="1" fill="none" fill-rule="evenodd">
        <g id="Desktop" transform="translate(-1196.000000, -234.000000)">
            <g id="trash" transform="translate(1196.266797, 234.000000)">
                <path d="M12.6672,4.36613333 L12.1728,17.9661333 C12.1696,18.0538667 12.0869333,18.1333333 11.9984,18.1333333 L3.2016,18.1333333 C3.11466667,18.1333333 3.0304,18.052 3.0272,17.9661333 L2.5328,4.36613333 C2.51386667,3.85093333 2.08133333,3.44853333 1.56613333,3.4672 C1.05093333,3.48613333 0.648533333,3.91866667 0.6672,4.43386667 L1.16186667,18.0338667 C1.20133333,19.1234667 2.11013333,20 3.2016,20 L11.9984,20 C13.0917333,20 13.9984,19.1256 14.0384,18.0338667 L14.5328,4.43386667 C14.5514667,3.91866667 14.1490667,3.48613333 13.6338667,3.4672 C13.1186667,3.44853333 12.6858667,3.85093333 12.6672,4.36613333" id="Fill-1" fill="#FF6578"></path>
                <path d="M6.93333333,7.06666667 L6.93333333,16.1333333 C6.93333333,16.5016 7.23173333,16.8 7.6,16.8 C7.96826667,16.8 8.26666667,16.5016 8.26666667,16.1333333 L8.26666667,7.06666667 C8.26666667,6.6984 7.96826667,6.4 7.6,6.4 C7.23173333,6.4 6.93333333,6.6984 6.93333333,7.06666667" id="Fill-3" fill="#FF6578"></path>
                <path d="M3.86693333,7.08632 L4.1336,16.1529867 C4.14453333,16.52072 4.45146667,16.81032 4.81973333,16.7996533 C5.18773333,16.78872 5.47733333,16.4817867 5.4664,16.1137867 L5.19973333,7.04712 C5.18906667,6.67912 4.88186667,6.38952 4.5136,6.40018667 C4.1456,6.41112 3.856,6.71832 3.86693333,7.08632" id="Fill-5" fill="#FF6578"></path>
                <path d="M10.0002667,7.04701333 L9.7336,16.11368 C9.72293333,16.48168 10.0125333,16.78888 10.3805333,16.7998133 C10.7485333,16.81048 11.0554667,16.52088 11.0664,16.15288 L11.3330667,7.08621333 C11.3437333,6.71821333 11.0541333,6.41101333 10.6861333,6.40034667 C10.3181333,6.38941333 10.0112,6.67901333 10.0002667,7.04701333" id="Fill-7" fill="#FF6578"></path>
                <path d="M0.933333333,4.66666667 L14.2666667,4.66666667 C14.7821333,4.66666667 15.2,4.2488 15.2,3.73333333 C15.2,3.21786667 14.7821333,2.8 14.2666667,2.8 L0.933333333,2.8 C0.417866667,2.8 0,3.21786667 0,3.73333333 C0,4.2488 0.417866667,4.66666667 0.933333333,4.66666667" id="Fill-9" fill="#FF6578"></path>
                <g id="Group-13" transform="translate(4.000000, 0.000000)">
                    <mask id="mask-2" fill="white">
                        <use xlink:href="#path-1"></use>
                    </mask>
                    <g id="Clip-12"></g>
                    <path d="M1.8388,3.29296 L2.1132,2.19509333 C2.1524,2.03856 2.37213333,1.86656 2.5324,1.86656 L4.6676,1.86656 C4.82813333,1.86656 5.04733333,2.03802667 5.0868,2.19509333 L5.3612,3.29296 L7.17213333,2.84042667 L6.89773333,1.74256 C6.6508,0.754826667 5.68493333,-0.000106666667 4.6676,-0.000106666667 L2.5324,-0.000106666667 C1.51533333,-0.000106666667 0.5492,0.755093333 0.302266667,1.74256 L0.0278666667,2.84042667 L1.8388,3.29296 Z" id="Fill-11" fill="#FF6578" mask="url(#mask-2)"></path>
                </g>
            </g>
        </g>
    </g>
</svg>

<?xml version="1.0" encoding="utf-8"?>
<!-- Generator: Adobe Illustrator 21.1.0, SVG Export Plug-In . SVG Version: 6.00 Build 0)  -->
<svg version="1.1" id="Layer_1" xmlns="http://www.w3.org/2000/svg" xmlns:xlink="http://www.w3.org/1999/xlink" x="0px" y="0px"
	 viewBox="0 0 16 20" style="enable-background:new 0 0 16 20;" xml:space="preserve">
<style type="text/css">
	.st0{fill:#FF002B;}
	.st1{filter:url(#Adobe_OpacityMaskFilter);}
	.st2{fill:#FFFFFF;}
	.st3{mask:url(#mask-2);fill:#FF002B;}
</style>
<title>trash</title>
<desc>Created with Sketch.</desc>
<g id="Page-1">
	<g id="Desktop" transform="translate(-1196.000000, -234.000000)">
		<g id="trash" transform="translate(1196.266797, 234.000000)">
			<path id="Fill-1" class="st0" d="M12.7,4.4L12.2,18c0,0.1-0.1,0.2-0.2,0.2H3.2C3.1,18.1,3,18.1,3,18L2.5,4.4c0-0.5-0.5-0.9-1-0.9
				c-0.5,0-0.9,0.5-0.9,1L1.2,18c0,1.1,0.9,2,2,2H12c1.1,0,2-0.9,2-2l0.5-13.6c0-0.5-0.4-0.9-0.9-1C13.1,3.4,12.7,3.9,12.7,4.4"/>
			<path id="Fill-3" class="st0" d="M6.9,7.1v9.1c0,0.4,0.3,0.7,0.7,0.7s0.7-0.3,0.7-0.7V7.1c0-0.4-0.3-0.7-0.7-0.7S6.9,6.7,6.9,7.1
				"/>
			<path id="Fill-5" class="st0" d="M3.9,7.1l0.3,9.1c0,0.4,0.3,0.7,0.7,0.6c0.4,0,0.7-0.3,0.6-0.7L5.2,7c0-0.4-0.3-0.7-0.7-0.6
				C4.1,6.4,3.9,6.7,3.9,7.1"/>
			<path id="Fill-7" class="st0" d="M10,7l-0.3,9.1c0,0.4,0.3,0.7,0.6,0.7c0.4,0,0.7-0.3,0.7-0.6l0.3-9.1c0-0.4-0.3-0.7-0.6-0.7
				C10.3,6.4,10,6.7,10,7"/>
			<path id="Fill-9" class="st0" d="M0.9,4.7h13.3c0.5,0,0.9-0.4,0.9-0.9s-0.4-0.9-0.9-0.9H0.9C0.4,2.8,0,3.2,0,3.7S0.4,4.7,0.9,4.7
				"/>
			<g id="Group-13" transform="translate(4.000000, 0.000000)">
				<g id="Clip-12">
				</g>
				<defs>
					<filter id="Adobe_OpacityMaskFilter" filterUnits="userSpaceOnUse" x="0" y="0" width="7.1" height="3.3">
						<feColorMatrix  type="matrix" values="1 0 0 0 0  0 1 0 0 0  0 0 1 0 0  0 0 0 1 0"/>
					</filter>
				</defs>
				<mask maskUnits="userSpaceOnUse" x="0" y="0" width="7.1" height="3.3" id="mask-2">
					<g class="st1">
						<polygon id="path-1" class="st2" points="7.2,0 0,0 0,3.3 7.2,3.3 						"/>
					</g>
				</mask>
				<path id="Fill-11" class="st3" d="M1.8,3.3l0.3-1.1c0-0.2,0.3-0.3,0.4-0.3h2.1C4.8,1.9,5,2,5.1,2.2l0.3,1.1l1.8-0.5L6.9,1.7
					C6.7,0.8,5.7,0,4.7,0H2.5c-1,0-2,0.8-2.2,1.7L0,2.8L1.8,3.3z"/>
			</g>
		</g>
	</g>
</g>
</svg>
